static/img/kroki/91cd4171b7f85d060febd0fd30423f17.svg

<?xml version="1.0" encoding="us-ascii" standalone="no"?><svg xmlns="http://www.w3.org/2000/svg" xmlns:xlink="http://www.w3.org/1999/xlink" contentStyleType="text/css" height="374px" preserveAspectRatio="none" style="width:364px;height:374px;" version="1.1" viewBox="0 0 364 374" width="364px" zoomAndPan="magnify"><defs/><g><!--class azure_network_virtual_network--><g id="elem_azure_network_virtual_network"><rect codeLine="23" fill="#3D176E" height="39.7891" id="azure_network_virtual_network" rx="2.5" ry="2.5" style="stroke:#000D19;stroke-width:0.5;" width="310" x="47" y="328.58"/><ellipse cx="62" cy="348.4745" fill="#ADD1B2" rx="11" ry="11" style="stroke:#181818;stroke-width:1.0;"/><path d="M64.9688,354.1152 Q64.3906,354.412 63.75,354.5527 Q63.1094,354.7089 62.4063,354.7089 Q59.9063,354.7089 58.5781,353.0683 Q57.2656,351.412 57.2656,348.287 Q57.2656,345.162 58.5781,343.5058 Q59.9063,341.8495 62.4063,341.8495 Q63.1094,341.8495 63.75,342.0058 Q64.4063,342.162 64.9688,342.4589 L64.9688,345.1777 Q64.3438,344.5995 63.75,344.3339 Q63.1563,344.0527 62.5313,344.0527 Q61.1875,344.0527 60.5,345.1308 Q59.8125,346.1933 59.8125,348.287 Q59.8125,350.3808 60.5,351.4589 Q61.1875,352.5214 62.5313,352.5214 Q63.1563,352.5214 63.75,352.2558 Q64.3438,351.9745 64.9688,351.3964 L64.9688,354.1152 Z " fill="#000000"/><text fill="#D9B8FF" font-family="Helvetica" font-size="17" lengthAdjust="spacing" textLength="268" x="81" y="354.3598">azure_network_virtual_network</text></g><!--class microsoft_resource--><g id="elem_microsoft_resource"><rect codeLine="26" fill="#3D176E" height="39.7891" id="microsoft_resource" rx="2.5" ry="2.5" style="stroke:#000D19;stroke-width:0.5;" width="200" x="7" y="167.79"/><ellipse cx="22" cy="187.6845" fill="#ADD1B2" rx="11" ry="11" style="stroke:#181818;stroke-width:1.0;"/><path d="M24.9688,193.3252 Q24.3906,193.622 23.75,193.7627 Q23.1094,193.9189 22.4063,193.9189 Q19.9063,193.9189 18.5781,192.2783 Q17.2656,190.622 17.2656,187.497 Q17.2656,184.372 18.5781,182.7158 Q19.9063,181.0595 22.4063,181.0595 Q23.1094,181.0595 23.75,181.2158 Q24.4063,181.372 24.9688,181.6689 L24.9688,184.3877 Q24.3438,183.8095 23.75,183.5439 Q23.1563,183.2627 22.5313,183.2627 Q21.1875,183.2627 20.5,184.3408 Q19.8125,185.4033 19.8125,187.497 Q19.8125,189.5908 20.5,190.6689 Q21.1875,191.7314 22.5313,191.7314 Q23.1563,191.7314 23.75,191.4658 Q24.3438,191.1845 24.9688,190.6064 L24.9688,193.3252 Z " fill="#000000"/><text fill="#D9B8FF" font-family="Helvetica" font-size="17" lengthAdjust="spacing" textLength="158" x="41" y="193.5698">microsoft_resource</text></g><!--class network--><g id="elem_network"><rect codeLine="29" fill="#3D176E" height="39.7891" id="network" rx="2.5" ry="2.5" style="stroke:#000D19;stroke-width:0.5;" width="112" x="242" y="167.79"/><ellipse cx="257" cy="187.6845" fill="#ADD1B2" rx="11" ry="11" style="stroke:#181818;stroke-width:1.0;"/><path d="M259.9688,193.3252 Q259.3906,193.622 258.75,193.7627 Q258.1094,193.9189 257.4063,193.9189 Q254.9063,193.9189 253.5781,192.2783 Q252.2656,190.622 252.2656,187.497 Q252.2656,184.372 253.5781,182.7158 Q254.9063,181.0595 257.4063,181.0595 Q258.1094,181.0595 258.75,181.2158 Q259.4063,181.372 259.9688,181.6689 L259.9688,184.3877 Q259.3438,183.8095 258.75,183.5439 Q258.1563,183.2627 257.5313,183.2627 Q256.1875,183.2627 255.5,184.3408 Q254.8125,185.4033 254.8125,187.497 Q254.8125,189.5908 255.5,190.6689 Q256.1875,191.7314 257.5313,191.7314 Q258.1563,191.7314 258.75,191.4658 Q259.3438,191.1845 259.9688,190.6064 L259.9688,193.3252 Z " fill="#000000"/><text fill="#D9B8FF" font-family="Helvetica" font-size="17" lengthAdjust="spacing" textLength="70" x="276" y="193.5698">network</text></g><!--class resource--><g id="elem_resource"><rect codeLine="32" fill="#3D176E" height="39.7891" id="resource" rx="2.5" ry="2.5" style="stroke:#000D19;stroke-width:0.5;" width="113" x="145.5" y="7"/><ellipse cx="160.5" cy="26.8945" fill="#ADD1B2" rx="11" ry="11" style="stroke:#181818;stroke-width:1.0;"/><path d="M163.4688,32.5352 Q162.8906,32.832 162.25,32.9727 Q161.6094,33.1289 160.9063,33.1289 Q158.4063,33.1289 157.0781,31.4883 Q155.7656,29.832 155.7656,26.707 Q155.7656,23.582 157.0781,21.9258 Q158.4063,20.2695 160.9063,20.2695 Q161.6094,20.2695 162.25,20.4258 Q162.9063,20.582 163.4688,20.8789 L163.4688,23.5977 Q162.8438,23.0195 162.25,22.7539 Q161.6563,22.4727 161.0313,22.4727 Q159.6875,22.4727 159,23.5508 Q158.3125,24.6133 158.3125,26.707 Q158.3125,28.8008 159,29.8789 Q159.6875,30.9414 161.0313,30.9414 Q161.6563,30.9414 162.25,30.6758 Q162.8438,30.3945 163.4688,29.8164 L163.4688,32.5352 Z " fill="#000000"/><text fill="#D9B8FF" font-family="Helvetica" font-size="17" lengthAdjust="spacing" textLength="71" x="179.5" y="32.7798">resource</text></g><!--reverse link microsoft_resource to azure_network_virtual_network--><g id="link_microsoft_resource_azure_network_virtual_network"><path codeLine="35" d="M127.7016,223.2865 C145.9616,253.8065 172.22,297.69 190.5,328.25 " fill="none" id="microsoft_resource-backto-azure_network_virtual_network" style="stroke:#FFAF37;stroke-width:2.0;"/><polygon fill="none" points="118.46,207.84,122.5527,226.367,132.8504,220.2059,118.46,207.84" style="stroke:#FFAF37;stroke-width:2.0;"/></g><!--reverse link network to azure_network_virtual_network--><g id="link_network_azure_network_virtual_network"><path codeLine="36" d="M277.1079,223.2441 C258.6579,253.7641 232.1,297.69 213.62,328.25 " fill="none" id="network-backto-azure_network_virtual_network" style="stroke:#FFAF37;stroke-width:2.0;"/><polygon fill="none" points="286.42,207.84,271.9732,220.14,282.2426,226.3481,286.42,207.84" style="stroke:#FFAF37;stroke-width:2.0;"/></g><!--reverse link resource to microsoft_resource--><g id="link_resource_microsoft_resource"><path codeLine="37" d="M181.2984,62.4965 C163.0384,93.0165 136.78,136.9 118.5,167.46 " fill="none" id="resource-backto-microsoft_resource" style="stroke:#FFAF37;stroke-width:2.0;"/><polygon fill="none" points="190.54,47.05,176.1496,59.4159,186.4473,65.577,190.54,47.05" style="stroke:#FFAF37;stroke-width:2.0;"/></g><!--reverse link resource to network--><g id="link_resource_network"><path codeLine="38" d="M222.8921,62.4541 C241.3421,92.9741 267.9,136.9 286.38,167.46 " fill="none" id="resource-backto-network" style="stroke:#FFAF37;stroke-width:2.0;"/><polygon fill="none" points="213.58,47.05,217.7574,65.5581,228.0268,59.35,213.58,47.05" style="stroke:#FFAF37;stroke-width:2.0;"/></g><!--SRC=[ZP11Jm8n48Nl-okQS2O1YGA95o0nUY56l9DXEuLcTpjaEWi1zRyhmfhINS1Z-xvvxysih4Q5nLfsgi1YWUmJdrct1eP2ZPXfEw6SMBMC0TFhn-8JERa9JA50zOpv1iMc41FlAvjc3hrNTu4qXZHRCfLE7-s5mVaV2Pq4r2G7xqSYR1UbO5163nS3Os8oDctrTBV_W3MCM2EVa4wdexl36BaPTNNlFs9czwYwuT6c95YhMOlufQwsF111oTgYbNwnuojeRTrItGT_RyTEx93F_cShqBGzq0Po7yPuGKQItHedjQrmED2ctmY_N8AJz70w1VkISUvGjiJPV6DPIiYhj_f8agyJMDYKoPEHEQEdabCCrOQ1SwnX_F6ptMvVBv1KllzX8-DwOanKWzy0]--></g></svg>

<svg xmlns="http://www.w3.org/2000/svg" width="364" height="374" viewBox="0 0 364 374"><rect width="310" height="39.789" x="47" y="328.58" fill="#3D176E" rx="2.5" ry="2.5" style="stroke:#000d19;stroke-width:.5"/><circle cx="62" cy="348.474" r="11" fill="#ADD1B2" style="stroke:#181818;stroke-width:1"/><path d="M64.969 354.115q-.578.297-1.219.438-.64.156-1.344.156-2.5 0-3.828-1.64-1.312-1.657-1.312-4.782t1.312-4.781q1.328-1.656 3.828-1.656.703 0 1.344.156.656.156 1.219.453v2.719q-.625-.579-1.219-.844-.594-.281-1.219-.281-1.343 0-2.031 1.078-.687 1.062-.687 3.156t.687 3.172q.688 1.062 2.031 1.062.625 0 1.219-.265.594-.281 1.219-.86z"/><text x="81" y="354.36" fill="#D9B8FF" font-family="Helvetica" font-size="17" textLength="268">azure_network_virtual_network</text><rect width="200" height="39.789" x="7" y="167.79" fill="#3D176E" rx="2.5" ry="2.5" style="stroke:#000d19;stroke-width:.5"/><circle cx="22" cy="187.685" r="11" fill="#ADD1B2" style="stroke:#181818;stroke-width:1"/><path d="M24.969 193.325q-.578.297-1.219.438-.64.156-1.344.156-2.5 0-3.828-1.64-1.312-1.657-1.312-4.782t1.312-4.781q1.328-1.656 3.828-1.656.703 0 1.344.156.656.156 1.219.453v2.719q-.625-.578-1.219-.844-.594-.281-1.219-.281-1.343 0-2.031 1.078-.687 1.062-.687 3.156t.687 3.172q.688 1.062 2.031 1.062.625 0 1.219-.265.594-.281 1.219-.86z"/><text x="41" y="193.57" fill="#D9B8FF" font-family="Helvetica" font-size="17" textLength="158">microsoft_resource</text><rect width="112" height="39.789" x="242" y="167.79" fill="#3D176E" rx="2.5" ry="2.5" style="stroke:#000d19;stroke-width:.5"/><circle cx="257" cy="187.685" r="11" fill="#ADD1B2" style="stroke:#181818;stroke-width:1"/><path d="M259.969 193.325q-.578.297-1.219.438-.64.156-1.344.156-2.5 0-3.828-1.64-1.312-1.657-1.312-4.782t1.312-4.781q1.328-1.656 3.828-1.656.703 0 1.344.156.656.156 1.219.453v2.719q-.625-.578-1.219-.844-.594-.281-1.219-.281-1.344 0-2.031 1.078-.687 1.062-.687 3.156t.687 3.172q.688 1.062 2.031 1.062.625 0 1.219-.265.594-.281 1.219-.86z"/><text x="276" y="193.57" fill="#D9B8FF" font-family="Helvetica" font-size="17" textLength="70">network</text><rect width="113" height="39.789" x="145.5" y="7" fill="#3D176E" rx="2.5" ry="2.5" style="stroke:#000d19;stroke-width:.5"/><circle cx="160.5" cy="26.895" r="11" fill="#ADD1B2" style="stroke:#181818;stroke-width:1"/><path d="M163.469 32.535q-.578.297-1.219.438-.64.156-1.344.156-2.5 0-3.828-1.64-1.312-1.657-1.312-4.782t1.312-4.781q1.328-1.656 3.828-1.656.703 0 1.344.156.656.156 1.219.453v2.719q-.625-.578-1.219-.844-.594-.281-1.219-.281-1.344 0-2.031 1.078-.687 1.062-.687 3.156t.687 3.172q.688 1.062 2.031 1.062.625 0 1.219-.265.594-.281 1.219-.86z"/><text x="179.5" y="32.78" fill="#D9B8FF" font-family="Helvetica" font-size="17" textLength="71">resource</text><path fill="none" d="M127.702 223.287c18.26 30.52 44.518 74.403 62.798 104.963m-72.04-120.41 4.093 18.527 10.297-6.161z" style="stroke:#ffaf37;stroke-width:2"/><g fill="none"><path d="M277.108 223.244c-18.45 30.52-45.008 74.446-63.488 105.006" style="stroke:#ffaf37;stroke-width:2"/><path d="m286.42 207.84-14.447 12.3 10.27 6.208z" style="stroke:#ffaf37;stroke-width:2"/></g><path fill="none" d="M181.298 62.497C163.038 93.017 136.78 136.9 118.5 167.46m72.04-120.41-14.39 12.366 10.297 6.161z" style="stroke:#ffaf37;stroke-width:2"/><g fill="none"><path d="M222.892 62.454c18.45 30.52 45.008 74.446 63.488 105.006" style="stroke:#ffaf37;stroke-width:2"/><path d="m213.58 47.05 4.177 18.508 10.27-6.208z" style="stroke:#ffaf37;stroke-width:2"/></g></svg>
